X:1
T:James Gibb editions
T:Tutto lo di - Lasso
T:#
%%score [ 1 2 3 4 ]
L:1/8
Q:1/4=140
M:4/4
K:F
V:1 treble nm="Soprano" snm="S"
V:2 treble nm="Alto" snm="A"
V:3 treble-8 nm="Tenor" snm="T"
V:4 bass nm="Bass" snm="B"
V:1
"^Tutto lo dì""^Orlando di Lasso\n(1532-1594)" A2 AA c4 | d2 dd c4 | A2 AA A2 G2 | F2 B2 A2 G2- | %4
w: Tut- to lo dì,|tut- to lo dì,|tut- to lo dì mi|di- ci: Can- ta,|
 G2 ^F2 G4 :| z2 E2 GGGG |[M:4/4] A4 G2 ^F2 | ^FFFF G2 A2 | B2 B4 A2 | B8 | z4 B4- | B2 A2 B4 | %12
w: * can- ta!|Non ve- di ca non|pos- so, non|ve- di ca non pos- so|re- fia- ta-|re!|A|* che tan-|
 A2 A2 A4 | ^F8 | z4 E4 | E2 E2 E2 E2 ||[M:3/4] ^F4 G2 | A4 G2 | A4 B2 | A4 G2 ||[M:4/4] A4 B4 | %21
w: to can- ta-|re?|Vor-|ria che mi di-|ces- si,|So- na,|so- na,|so- na,|so- na!|
 z2 d2 _e2 e2 | _e2 e2 e4 | d2 B2 A2 G2 | ^F2 G2 G2 (F2 | G4) z2 G2 | B2 B2 B2 B2 | B4 B2 B2 | %28
w: Non le cam-|pan' a no-|na, non le cam-|pan' a no- na,|* non|le cam- pan' a|no- na, non|
 A2 G2 ^F2 G2 | G2 (^F2 G4) | z4 E4 | F4 F4- | F2 F2 E4 || (3:2:2D8 ^F4 |: (3:2:2^F8 G4 | %35
w: le cam- pan' a|no- na *|Ma|lo cim\-|* ba- lo|tuo, O|se can-|
 (3:2:1A6 (3:2:2G2 A4 | (3:2:1G6 (3:2:2A2 G4 |1 (3:2:2^F8 F4 :|2 ^F4 z2 G2 || A4 B4 | z2 B2 B4 | %41
w: to ri- ro|ro- ri- ro-|gne, O|gne, S'io|t'hag- gio,|s'io t'hag-|
 B4 z2 B2 | B2 A2 G2 G2 | G4 ^F4 | z2 G2 A4 | B4 z2 B2 | B4 B4 | %47
w: gio, s'io|th'ag- gio, sott' a|st'o- gne,|s'io t'hag-|gio, s'io|t'hag- gio,|
 z2[Q:1/4=138] B2[Q:1/4=135] B2[Q:1/4=132] A2 |[Q:1/4=129] G2[Q:1/4=125] G4[Q:1/4=121] ^F2 | %49
w: s'io t'hag- gio,|sott' a st'o-|
[Q:1/4=120] G8 |] %50
w: gne.|
V:2
 F2 FF C4 | F2 FF E4 | F2 FF F2 D2 | D2 F2 F2 D2 | D4 =B,4 :| z2 C2 EEEE |[M:4/4] F4 E2 D2 | %7
w: Tut- to lo dì,|tut- to lo dì,|tut- to lo dì mi|di- ci: Can- ta,|can- ta!|Non ve- di ca non|pos- so, non|
 DDDD D2 F2 | F2 G2 F4 | F8 | F6 F2 | F4 D2 D2 | F4 E4 | z4 D4 | ^C6 C2 | ^C4 C4 ||[M:3/4] D4 E2 | %17
w: ve- di ca non pos- so|re- fia- ta-|re!|A che|tan- to can-|ta- re?|Vor-|ria che|mi di-|ces- s,|
 F4 D2 | F4 F2 | F4 D2 ||[M:4/4] F4 F4 | z2 F2 G2 G2 | G2 G2 G4 | F2 F2 F2 E2 | D2 C2 D4 | %25
w: So- na,|so- na,|so- na,|so- na!|Non le cam-|pan' a no-|na, non le cam-|pan' a no-|
 =B,4 z2 D2 | G2 G2 G2 G2 | G4 F2 F2 | F2 _E2 D2 C2 | D4 =B,4 | z4 C4 | C4 D4- | D2 D2 C4 || %33
w: na, non|le cam- pan' a|no- na, non|le cam- pan' a|no- na|Ma|lo cim\-|* ba- lo|
 (3:2:2A,8 D4 |: (3:2:2D8 D4 | (3:2:1F6 (3:2:2G2 F4 | (3:2:1D6 (3:2:2D2 D4 |1 (3:2:2D8 D4 :|2 %38
w: tuo, O|se can-|to ri- ro|ro- ri- ro-|gne, O|
 D4 z2 E2 || F4 F2 F2 | F4 G4 | z2 F2 F4- | F2 F2 _E2 D2 | (D2 C2) D2 D2 | E4 F4- | F2 F2 F4 | %46
w: gne, S'io|t'hag- gio, s'io|t'hag- gio,|s'io t'hag\-|* gio, sott' a|st'o\- * gne, s'io|t'hag- gio,|* s'io t'hag-|
 G4 z2 F2 | F6 F2 | D2 _E2 D4 | D8 |] %50
w: gio, s'io|t'hag- gio,|sott' a st'o-|gne.|
V:3
 c2 cc A4 | B2 BB G4 | d2 dd c2 B2 | A2 d2 c2 B2 | A4 G4 :| z2 G2 cccc | %6
w: Tut- to lo dì,|tut- to lo dì,|tut- to lo dì mi|di- ci: Can- ta,|can- ta!|Non ve- di ca non|
[M:4/4][K:treble-8] c4 c2 A2 | AAAA B2 c2 | d2 _e2 c4 | B4 d4- | d2 c2 d4 | c4 B4 | (c2 d4 ^c2) | %13
w: pos- so, non|ve- di ca non pos- so|re- fia- ta-|re! A|* che tan-|to can-|ta\- * *|
 d4 A4 | A6 A2 | A2 A2 A4 ||[M:3/4] A4 c2- | c4 B2 | c4 d2 | c4 B2 ||[M:4/4] c4 d4 | z2 B2 B2 B2 | %22
w: re? Vor-|ria che|mi di- ces-|si, So\-|* na,|so- na,|so- na,|so- na!|Non le cam-|
 B2 B2 B4 | B2 d2 c3 B | A2 G2 A4 | G4 z2 B2 | _e2 e2 e2 e2 | _e4 d2 d2 | c3 B A2 G2 | A4 G4 | %30
w: pan' a no-|na, on le cam-|pan' a no-|na, non|le cam- pan' a|no- na, non|le cam- pan' a|no- na|
 z4 G4 | A4 B4- | B2 B2 G4 || (3:2:2^F8 A4 |: (3:2:2A8 B4 | (3:2:1c6 (3:2:2c2 c4 | %36
w: Ma|lo cim\-|* ba- lo|tuo, O|se can-|to ri- ro|
 (3:2:1B6 (3:2:2A2 B4 |1 (3:2:2A8 A4 :|2 A4 z2 c2 || c4 d2 d2 | d4 _e4 | z2 d2 d4- | d2 c2 B2 B2 | %43
w: ro- ri- ro-|gne, O|gne, S'io|t'hag- gio, s'io|t'hag- gio,|s'io t'hag\-|* gio, sott' a|
 G4 A2 A2 | c8 | d2 d2 d4 | _e4 z2 d2 | d6 c2 | =B2 c2 A4 | =B8 |] %50
w: st'o- gne, s'io|t'hag-|gio, s'io t'hag-|gio, s'io|t'hag- gio,|sott' a st'o-|gne.|
V:4
 F,2 F,F, F,4 | B,,2 B,,B,, C,4 | D,2 D,D, F,2 G,2 | D,2 B,,2 F,2 G,2 | D,4 G,,4 :| %5
w: Tut- to lo dì,|tut- to lo dì,|tut- to lo dì mi|di- ci: Can- ta,|can- ta!|
 z2 C,2 C,C,C,C, |[M:4/4] F,4 C,2 D,2 | D,D,D,D, G,2 F,2 | B,2 _E,2 F,4 | B,,4 B,4- | B,2 A,2 B,4 | %11
w: Non ve- di ca non|pos- so, non|ve- di ca non pos- so|re- fia- ta-|re! A|* che tan-|
 F,4 G,4 | (F,2 D,2 A,4) | D,8 | z4 A,,4 | A,,2 A,,2 A,,2 A,,2 ||[M:3/4] D,4 C,2 | F,4 G,2 | %18
w: to can-|ta\- * *|re?|Vor-|ria che mi di-|ces- si,|So- na,|
 F,4 B,,2 | F,4 G,2 ||[M:4/4] F,4 B,,4 | z2 B,,2 _E,2 E,2 | _E,2 E,2 E,4 | B,,2 B,,2 F,2 C,2 | %24
w: so- na,|so- na,|so- na!|Non le cam-|pan' a no-|na, non le cam-|
 D,2 _E,2 D,4 | G,,4 z2 G,2 | _E,2 E,2 E,2 E,2 | _E,4 B,,2 B,,2 | F,2 C,2 D,2 _E,2 | D,4 G,,4 | %30
w: pan' a no-|na, non|le cam- pan' a|no- na, non|le cam- pan' a|no- na|
 z4 C,4 | F,4 B,,4- | B,,2 B,,2 C,4 || (3:2:2D,8 D,4 |: (3:2:2D,8 G,4 | (3:2:1F,6 (3:2:2E,2 F,4 | %36
w: Ma|lo cim\-|* ba- lo|tuo, O|se can-|to ri- ro|
 (3:2:1G,6 (3:2:2^F,2 G,4 |1 (3:2:2D,8 D,4 :|2 D,4 z2 C,2 || F,4 B,,2 B,2 | B,4 _E,4 | %41
w: ro- ri- ro-|gne, O|gne, S'io|t'hag- gio, s'io|t'hag- gio,|
 z2 B,2 B,4- | B,2 F,2 G,2 G,2 | _E,4 D,4 | z2 C,2 F,4 | B,,2 B,2 B,4 | _E,4 z2 B,2 | B,6 F,2 | %48
w: s'io t'hag\-|* gio, sott' a|st'o- gne,|s'io t'hag-|gio, s'io t'hag-|gio, s'io|t'hag- gio,|
 G,2 C,2 D,4 | G,,8 |] %50
w: sott' a st'o-|gne.|

